!!!!SEGMENT: pl-lzu--m-15111--001-043_noskowski-zygmunt--spiewnik-dla-dzieci-op-34-43-grzyby.krn
!!!cenid: 18xx:4740
!!!COM: Noskowski, Zygmunt
!!!COM-rismID: pe106604
!!!CDT: 1846/05/02-1909/07/23
!!!CNT: Polish
!!!GTL: Śpiewnik dla dzieci, op. 34
!!!OTL: 43. Grzyby
!!!OMV: 043
!!!PDT: 1890
!!!AGN: Secular; Song; Children
!!!YEC: Copyright 2022 Narodowy Instytut Fryderyka Chopina (https://polishscores.org)
!!!YEM: License CC-BY-4.0 (https://creativecommons.org/licenses/by/4.0)
!!!SMS-siglum: PL-LŹu
!!!SMS-shelfmark: M 15111
!!!SMS-variant:
!!!SMS-altvar:
!!!SMS-shelfwork: 001-043 G
!!!NIFC-rismSourceID: 1001234040
!!!NIFC-rismChildID: 1001234040
!!!NIFC-islandoraID: pl-lzu:5455
!!!URL-pdf-islandora: https://repozytorium.nifc.pl/islandora/object/pl-lzu%3A5455/datastream/PDF/view
!!!URL-scan: https://polish.musicsources.pl/pl/lokalizacje/galeria/druki-muzyczne/23228/52 @EN{Scan on Polish Music Sources Website} @PL{Skany w portalu Dziedzictwo Muzyki Polskiej w otwartym dostępie}
!!!IIIF:
!!!ONB-nifc:
!!!AIN: 1 piano 1 vox
!!!key: b
!!!OMD: Moderato cantabile.
**kern	**kern	**dynam	**kern	**text	**dynam
*part2	*part2	*part2	*part1	*part1	*part1
*staff3	*staff2	*staff2/3	*staff1	*staff1	*staff1
*I"[Piano]	*I"[Piano]	*	*I"[Voice]	*	*
*I'pf	*I'pf	*	*I'V	*	*
*Ipiano	*Ipiano	*	*Ivox	*	*
*ICklav	*ICklav	*	*ICvox	*	*
*IGacmp	*IGacmp	*	*IGsolo	*	*
*clefF4	*clefG2	*	*clefG2	*	*
*k[f#c#]	*k[f#c#]	*	*k[f#c#]	*	*
*b:	*b:	*	*b:	*	*
*M4/4	*M4/4	*	*M4/4	*	*
*met(c)	*met(c)	*	*met(c)	*	*
=1	=1	=1	=1	=1	=1
*	*^	*	*	*	*
!	!LO:TX:i:t=Umiarkowanie i śpiewnie.	!	!LO:DY:rj	!	!	!
4r	1b	4r	f	1r	.	.
(4d 4B\	.	(>4g\	.	.	.	.
4A 4F#\	.	4d#X\	.	.	.	.
4B 4G\)	.	4e\)	.	.	.	.
*	*v	*v	*	*	*	*
=2	=2	=2	=2	=2	=2
2.G 2.AA\	2.b 2.c#/	.	2r	.	.
.	.	.	4r	.	.
!	!	!LO:DY:rj	!	!	!LO:DY:rj
4r	(4b\	p	4b/	Po-	p
=3	=3	=3	=3	=3	=3
*^	*^	*	*	*	*
4r	4ryy	4a/	4r	.	4a/	-go-	.
(4A/	2D\	4f#/	2d\	.	4f#/	-dna	.
8B/L	.	8g/L	.	.	(8g/L	zo-	.
8A/J	.	8f#/J	.	.	8f#/J)	.	.
8F#L 8D\	4ryy	8d/L	4ryy	.	8d/	-rza	.
8F#\J)	.	8ddJ 8a 8d/)	.	.	8dd\	z wie-	.
*v	*v	*	*	*	*	*	*
=4	=4	=4	=4	=4	=4	=4
(4G\	(4cc# 4a/	4.d\	.	(4cc#\	-czo-	.
8GG/L	8bL 8g/	.	.	8b\L	.	.
8BB/J	8ddJ 8g/	8d\	.	8dd\J)	.	.
2D\)	2a 2f#/)	(4d\	.	4a/	-ru,	.
.	.	4c#\)	.	4r	.	.
!!LO:LB:g=original
=5	=5	=5	=5	=5	=5	=5
*^	*	*	*	*	*	*
(4E\	2ryy	(4g/	2B\	.	4g/	Pój-	.
4GG/)	.	8d#X/L	.	.	8d#X/	-dziem	.
.	.	8e/J	.	.	8e/	na	.
(4G/	2AA\	4b/	2c#\	.	4b/	grzy-	.
8F#/L	.	8a/L	.	.	8a/	-by	.
8E/J)	.	8g/J)	.	.	8g/	do	.
*v	*v	*	*	*	*	*	*
*	*v	*v	*	*	*	*
=6	=6	=6	=6	=6	=6
(4D/	(>4f# 4dn/	.	(4f#/	bo-	.
8C#/L	8eL 8A/	.	8e/L	.	.
8AA/J	8aJ 8c#/	.	8a/J	.	.
4D/)	4f# 4d/)	.	4f#/)	-ru.	.
(8D/L	4r	.	4r	.	.
8C#/J)	.	.	.	.	.
=7	=7	=7	=7	=7	=7
*	*^	*	*	*	*
(4BB/	4g#X/	(2d\	.	4g#X/	Pój-	.
!	!	!	!LO:HP:t=crescendo	!	!	!LO:HP:t=crescendo
4E\	8f#/L	.	<	8f#/	-dziem	<
.	8g#/J	.	.	8g#/	do	.
4AA/	8aL 8c#/	2ryy	.	(8a/L	bo-	.
.	8bJ 8d/	.	.	8b/J)	.	.
4F#\)	8cc#L 8e/	.	.	8cc#\	-ru	.
.	8aJ 8c#/)	.	.	8a/	na	.
!!LO:LB:g=original
=8	=8	=8	=8	=8	=8	=8
(4G#X\	(4dd 4b/	4.e\	.	(4dd\	ry-	.
8A\L	8cc#L 8a/	.	.	8cc#\L	.	.
8C#\J	8eeJ 8a/	8e\	.	8ee\J)	.	.
4E\)	4b 4g#X 4e/)	2ryy	.	4b\	-dze,	.
8D#X\L	4r	.	.	4r	.	.
8E\J	.	.	.	.	.	.
*	*v	*v	*	*	*	*
=9	=9	=9	=9	=9	=9
!	!	!LO:DY:rj	!	!	!LO:DY:rj
(4.E#X\	(4cc# 4g#X 4c#/	p	4cc#\	A-	p
.	8b/L	.	8b\	-le	.
8EE#X/	8cc#J 8g# 8c#/	.	8cc#\	nie	.
4.FF#/	8aL 8f# 8c#/	.	(8a/L	da-	.
.	8g# 8e#X 8B/	.	8g#X/J)	.	.
.	8f# 8A/	.	8f#/	-my	.
8GG#X/)	8bJ 8f# 8d/)	.	8b/	Ja-	.
=10	=10	=10	=10	=10	=10
*	*^	*	*	*	*
(8AA/L	(>4a 4f# 4c#/	4ryy	.	(4a/	-dwi-	.
8BB/J	.	.	.	.	.	.
4C#/	8g#X/L	4B\	.	8g#X/L	.	.
.	8e#X/J	.	.	8e#X/J)	.	.
8FF#/)	8f#L 8A/	2ryy	<	4f#/	-dze.	.
8r	8A/J)	.	.	.	.	.
8A\L	4r	.	.	4r	.	.
8A\J	.	.	[	.	.	.
*	*v	*v	*	*	*	*
!!LO:PB:g=original
=11	=11	=11	=11	=11	=11
!	!	!LO:DY:rj	!	!	!LO:DY:rj
8AL 8Gn\	(4ee 4a 4e/	f	4ee\	Na-	f
8A\	.	.	.	.	.
8A\	8cc#/L	.	8cc#\	-sza	.
8A\J	8a/J	.	8a/	Ja-	.
8AL 8F#\	8bL 8d/	.	(8b\L	-dwi-	.
8A\	8cc#/J	.	8cc#\J)	.	.
8A\	8dd\L	.	8dd\	-ga	.
8A\J	8b\J)	.	8b\	le-	.
=12	=12	=12	=12	=12	=12
8AL 8E\	(4dd 4g/	.	(4dd\	-ni-	.
8A\	.	.	.	.	.
8A\	8cc#/L	.	8cc#\L)	.	.
8A\J	8bJ 8c#/	.	8b\J	.	.
8AL 8F#\	4a 4d/)	.	4a/	-wa,	.
8A\	.	.	.	.	.
8A\	4r	.	4r	.	.
8A\J	.	.	.	.	.
=13	=13	=13	=13	=13	=13
!	!	!LO:DY:rj	!	!	!LO:DY:rj
8AL 8AA\	(4cc# 4f# 4c#/	p	4cc#\	Tyl-	p
8A\	.	.	.	.	.
8A\	8a/L	.	8a/	-ko	.
8A\J	8f#/J	.	8f#/	jej	.
8F#L 8BB\	8g#XL 8d/	.	(8g#X/L	gło-	.
8F#\	8a/J	.	8a/J)	.	.
8F#\	8b/L	.	8b/	-wa	.
8F#\J	8g#/J)	.	8g#/	się	.
!!LO:LB:g=original
=14	=14	=14	=14	=14	=14
*^	*^	*	*	*	*
2E#X/	8C#\L	(4b/	2c#\	.	(4b/	ki-	.
.	8C#\	.	.	.	.	.	.
.	8C#\	8a/L	.	.	8a/L	-wa,	.
.	8C#\J	8g#X/J)	.	.	8g#X/J)	.	.
8F# 8FF#/	2ryy	8a 8c#/	2ryy	.	4a/	.	.
8r	.	8r	.	.	.	.	.
4En 4EEn^/	.	4a 4gn 4c#^/	.	.	4r	.	.
*v	*v	*	*	*	*	*	*
*	*v	*v	*	*	*	*
=15	=15	=15	=15	=15	=15
!	!	!	!	!	!LO:DY:rj
2.D 2.DD/	4a 4f# 4d/	mf	4a/	Nie	mf
.	4f# 4d 4A/	.	8f#/	chce	.
.	.	.	8f#/	do	.
.	8gL 8d 8B/	.	8g/	bo-	.
.	8f#J 8d 8A/	.	8f#/	-ru	.
4F# 4FF#/	8dL 8A/	.	8d/	ko-	.
.	8ddJ 8a 8d/	.	8dd\	-sza	.
=16	=16	=16	=16	=16	=16
*	*^	*	*	*	*
4G 4GG/	(4cc# 4a/	4.d\	.	(4cc#\	nieść,	.
(8GGL 8GGG/	8bL 8g/	.	.	8b\L	.	.
8BBJ 8BBB/	8ddJ 8g/	8d\	.	8dd\J	.	.
4D 4DD/)	4a 4f# 4d/)	2ryy	.	4a/)	.	.
4r	4f# 4d 4A/	.	.	8r	.	.
.	.	.	.	8f#/	Nie	.
!!LO:LB:g=original
=17	=17	=17	=17	=17	=17	=17
*^	*	*	*	*	*	*
4.E 4.EE/	2ryy	(>4g 4d 4G/	2ryy	.	(4g/	bę-	.
.	.	8f#/L	.	.	8f#/)	.	.
8G 8E\	.	8gJ 8d/	.	.	8g/	-dzie	.
(4G/	2AA\	4b/	2c#\	.	(4b/	z na-	.
8F#/L	.	8a/L	.	.	8a/)	.	.
8E/J)	.	8g/J)	.	.	8g/	-mi	.
*v	*v	*	*	*	*	*	*
*	*v	*v	*	*	*	*
=18	=18	=18	=18	=18	=18
(<4D/	(4f# 4d/	.	4f#/	grzy-	.
8C#/L	8eL 8A/	.	(8e/L	-bów	.
8AA/J	8aJ 8c#/	.	8a/J)	.	.
4D\)	4f# 4d/)	.	4f#/	jeść.	.
(8qF#/	.	.	.	.	.
8E\L)	4r	.	4r	.	.
8D\J	.	.	.	.	.
=19	=19	=19	=19	=19	=19
*^	*^	*	*	*	*
!	!	!	!	!LO:DY:rj	!	!	!LO:DY:rj
(4cn/	2D\	(<4ee/	2f#\	f	4ee\	Nie	f
8A/L	.	8dd/L	.	.	8dd\	chce	.
8d/J)	.	8ccn/J)	.	.	8ccn\	do	.
(4.d/	2G\	(<8b/L	2g\	.	8b/	bo-	.
.	.	8a#X/J	.	.	8a#X/	-ru	.
.	.	8b/L	.	.	8b\	ko-	.
8B/)	.	8dd/J)	.	.	8dd\	-sza	.
*v	*v	*	*	*	*	*	*
!!LO:PB:g=original
=20	=20	=20	=20	=20	=20	=20
(2B (2E\	2.cc#X/	(2g\	.	2cc#X\	nieść,	.
.	.	.	>	.	.	.
4A#X 4F#\))	.	4f#\)	.	4r	.	.
!	!	!	!	!	!	!LO:DY:rj
4An 4G\	4cc# 4e/	4ryy	]	4cc#\	Nie	p
=21	=21	=21	=21	=21	=21	=21
4A 4F#\	(8ddL 8d/	4ryy	.	8dd\	bę-	.
.	8a/J)	.	.	8a/	-dzie	.
4BB/	(<8dd/L	4g 4d\	>	8dd\	z na-	.
.	8b/J)	.	.	8b\	-mi	.
(8C#/L	(8aL 8e/	2ryy	.	(8a/L	grzy-	.
8D/J)	8f#J 8d 8A/)	.	]	8f#/J)	.	.
(8GG#X/L	(8eL 8d 8B/	.	.	(8e/L	-bów	.
8AA/J)	8f#J 8c# 8A/)	.	.	8f#/J)	.	.
*	*v	*v	*	*	*	*
=22	=22	=22	=22	=22	=22
4DD\	4d 4A< 4F#</	.	[2d/	jeść.	.
(<4GGn\	(>8B<L 8G</	.	.	.	.
.	8c#<J 8E</	.	.	.	.
4DD\)	4A< 4F#<;/)	.	4d;/]	.	.
4r	4r	.	4r	.	.
==	==	==	==	==	==
*-	*-	*-	*-	*-	*-
!!!system-decoration: p1{p2}
!!!RDF**kern: > = above
!!!RDF**kern: < = below
!!!ENC: Andrzej Gręziak
!!!END: 2025-03-06
!!!ENC: Marta Lawrence
!!!END: 2025-03-23
